!!!!SEGMENT: pl-wtm--r-1425--002_stefani-jozef--polka.krn
!!!cenid: 18xx:2436
!!!COM: Stefani, Józef
!!!COM-rismid: pe30024097
!!!CDT: 1800/04/16-1876/03/19
!!!CNT: Polish
!!!OTL: Polka
!!!OMV: 002
!!!PDT:
!!!AGN: Secular; Polka
!!!SMS-siglum: PL-Wtm
!!!SMS-shelfmark: R 1425
!!!SMS-shelfwork: W
!!!SMS-variant:
!!!SMS-altvar:
!!!NIFC-rismid: 1001116235
!!!URL-scan: http://repozytorium.nifc.pl/skany/pl-wtm-nut--r1424--r1425
!!!ONB-nifc: UWAGA: w zbiorze: 1. Polonez, 2. Polka
!!!OMD: Polka Moderato.
**kern	**kern	**dynam
*part1	*part1	*part1
*staff2	*staff1	*
*I"Fortepian	*I"Fortepian	*
*>[A,A,B,B,C,C,D,A,A,B,B]	*>[A,A,B,B,C,C,D,A,A,B,B]	*>[A,A,B,B,C,C,D,A,A,B,B]
*>A	*>A	*>A
*clefF4	*clefG2	*
*k[f#]	*k[f#]	*
*G:	*G:	*
*M2/4	*M2/4	*
=1	=1	=1
8GG\L	8bL 8g'\	.
8BJ 8G 8D\	(16eeL 16cc\	.
.	16ddJJ 16b\)	.
*rep	*	*
8GG\L	8ggL 8b'\	.
8BJ 8G 8D\	8bJ 8g'\	.
*Xrep	*	*
=2	=2	=2
*^	*	*
4D/	8D\L	(8ddL 8b/	.
.	8cJ 8A 8F#\	16ccL 16a/)	.
.	.	16bJJ 16g#X/|	.
4c 4A 4F# 4D\	4ryy	4cc 4a'/	.
=3	=3	=3	=3
4D/	8D\L	8aL 8f#'/	.
.	8cJ 8A\	(16ddL 16b/	.
.	.	16ccJJ 16a/)	.
*rep	*rep	*	*
4D/	8D\L	8aaL 8cc'\	.
.	8cJ 8A\	8aJ 8f#'\	.
*Xrep	*Xrep	*	*
*v	*v	*	*
=4	=4	=4
8GG\L	(8ccL 8a/	.
8BJ 8G 8D\	16bL 16g/)	.
.	16aJJ 16f#'/	.
4B 4G 4D\	4b 4g'/	.
!!LO:LB:g=original
=5	=5	=5
8GG\L	8bL 8g'\	.
8BJ 8G 8D\	(16eeL 16cc\	.
.	16ddJJ 16b\)	.
*rep	*	*
8GG\L	8ggL 8b\	.
8BJ 8G 8D\	8ff#J 8dd\	.
*Xrep	*	*
=6	=6	=6
*^	*	*
4C/	8C\L	8eeL 8cc\	.
.	8AJ 8E\	16aa\L	.
.	.	16gg#X\JJ	.
4C/	8C\L	8aa\L	.
.	8AJ 8E-X\	8ee-X^<\J	.
=7	=7	=7	=7
!	!	!	!LO:DY:rj
4D/	8D\L	16dd'\LL	f
.	.	16gg'\J	.
.	8BJ 8G\	8bb'\J	.
4D/	8D\L	(16gg#X\LL	.
.	.	16aa\J)	.
.	8cJ 8A 8F#\	8ddd'\J	.
=8	=8	=8	=8
4D/	8D\L	(16eee\LL	.
.	.	16ddd\	.
.	8cJ 8A 8F#\	16ccc\	.
.	.	16aa\JJ)	.
8B 8G\	4ryy	8gg\	.
8r	.	8r	.
!!LO:LB:g=original
=9:|!|:	=9:|!|:	=9:|!|:	=9:|!|:
*>B	*>B	*>B	*>B
4D/	8D\L	8ff#L 8dd\|	.
.	8dJ 8A 8F#\	(16aaL 16ff#\	.
.	.	16gg#XJJ 16ee#X\)	.
*rep	*rep	*	*
4D/	8D\L	8aaL 8ff#'\	.
.	8dJ 8A 8F#\	8dddJ 8ff#'\	.
*Xrep	*Xrep	*	*
=10	=10	=10	=10
4D/	8D\L	8eeeL 8gg'\	.
.	8c#XJ 8A 8G\	(16eeeL 16gg\	.
.	.	16fff#JJ 16aa\)	.
4D/	8D\L	8dddL 8ff#'\	.
.	8dJ 8A 8F#\	8aaJ 8ff#'\	.
=11	=11	=11	=11
4D/	8D\L	8ff#L 8dd'\	.
.	8dJ 8A 8F#\	(16aaL 16ff#\	.
.	.	16gg#XJJ 16ee#X\)	.
*rep	*rep	*	*
4D/	8D\L	8aaL 8ff#'\	.
.	8dJ 8A 8F#\	8dddJ 8ff#'\	.
*Xrep	*Xrep	*	*
=12	=12	=12	=12
4D/	8D\L	(16fff#\LL	.
.	.	16eee\	.
.	8c#XJ 8A 8G\	16ccc#X\	.
.	.	16aa\JJ)	.
8dL 8A 8F# 8D\	4ryy	8ddd\	.
8dJ 8A 8F#\	.	8r	.
!!LO:LB:g=original
=13	=13	=13	=13
4D/	8D\L	8ff#L 8dd'\	.
.	8dJ 8A 8F#\	(16aaL 16ff#\	.
.	.	16gg#XJJ 16ee#X\)	.
*rep	*rep	*	*
4D/	8D\L	8aaL 8ff#'\	.
.	8dJ 8A 8F#\	8dddJ 8ff#'\	.
*Xrep	*Xrep	*	*
=14	=14	=14	=14
!LO:N:vis=4.	!	!	!
4D/	8D\L	8eeeL 8gg'\	.
.	8c#XJ 8A 8G\	(16eeeL 16gg\	.
.	.	16fff#JJ 16aa\)	.
4D/	8D\L	8dddL 8ff#'\	.
.	8dJ 8A 8F#\	8aaJ 8ff#'\	.
=15	=15	=15	=15
4D/	8D\L	8ff#L 8dd\	.
.	8dJ 8A 8F#\	16aaL 16ff#\	.
.	.	16gg#XJJ 16ee#X\	.
*rep	*rep	*	*
4D/	8D\L	8aaL 8ff#\	.
.	8dJ 8A 8F#\	8dddJ 8ff#\	.
*Xrep	*Xrep	*	*
=16	=16	=16	=16
4D/	8D\L	(16fff#\LL	.
.	.	16eee\	.
.	8c#XJ 8A 8G\	16ccc#X\	.
.	.	16aa\JJ)	.
8d 8A 8F# 8D\	4ryy	8ddd\	.
8r	.	8r	.
*v	*v	*	*
!!LO:LB:g=original
=17	=17	=17
8GG\L	8bL 8g'\	mf
8BJ 8G 8D\	(16eeL 16cc\	.
.	16ddJJ 16b\)	.
*rep	*	*
8GG\L	8ggL 8b'\	.
8BJ 8G 8D\	8ddJ 8b 8g'\	.
*Xrep	*	*
=18	=18	=18
*^	*	*
4D/	8D\L	(8ddL 8b/	.
.	8cJ 8A 8F#\	16ccL 16a/)	.
.	.	16bJJ 16g#X'/	.
4c 4A 4F# 4D\	4ryy	4cc 4a'/	.
=19	=19	=19	=19
4D/	8D\L	8aL 8f#'\	.
.	8cJ 8A\	(16ddL 16b\	.
.	.	16ccJJ 16a\)	.
*rep	*rep	*	*
!	!	!LO:TX:t=P:problem:mixed beam	!
4D/	8D\L	8aaL 8cc'>\	.
.	8cJ 8A\	8aJ 8f#'>/	.
*Xrep	*Xrep	*	*
*v	*v	*	*
=20	=20	=20
!LO:TX:t=P:problem:mixed beam	!	!
8GG/L	(8ccL 8a/	.
8BJ 8G 8D\	16bL 16g/)	.
.	16aJJ 16f#'/	.
4B 4G 4D\	4b 4g/	.
!!LO:LB:g=original
=21	=21	=21
8GG\L	8bL 8g'\	.
8BJ 8G 8D\	(16eeL 16cc\	.
.	16ddJJ 16b\)	.
*rep	*	*
8GG\L	8ggL 8b'\	.
8BJ 8G 8D\	8ff#J 8dd'\	.
*Xrep	*	*
=22	=22	=22
*^	*	*
4C/	8C\L	8eeL 8cc'\	.
.	8cJ 8A 8E\	(16aa\L	.
.	.	16gg#X\JJ)	.
4C/	8C\L	8aa'\L	.
.	8cJ 8A 8E-X\	8ee-X'^<\J	.
=23	=23	=23	=23
!	!	!	!LO:DY:rj
4D/	8D\L	16dd'\LL	f
.	.	16gg'\J	.
.	8BJ 8G\	8bb'\J	.
4D/	8D\L	(16gg#X\LL	.
.	.	16aa\J)	.
.	8cJ 8A 8F#\	8ddd'\J	.
=24	=24	=24	=24
4D/	8D\L	(16eee\LL	.
.	.	16ddd\	.
.	8cJ 8A 8F#\	16ccc\	.
.	.	16aa\JJ)	.
8B 8G\	4ryy	8gg\	.
!LO:TX:b:t=fine	!	!LO:TX:a:t=P:problem:fermata na kresce taktowej	!
8r	.	8r;	.
*v	*v	*	*
!!LO:PB:g=original
=25:|!|:	=25:|!|:	=25:|!|:
!!!OMD: Trio.
*>C	*>C	*>C
*k[fn]	*k[fn]	*
!LO:TX:a:t=P:problem:znak Fn	!LO:TX:a:t=P:problem:znak ffn	!LO:DY:rj
8C\L	16eeKL 16cc'\	p
.	16r	.
.	(8qdd#X 8qb/	.
8eJ 8c 8G\	8eeJ 8cc\)	.
8C\L	16eeKL 16cc'\	.
.	16r	.
.	(8qdd# 8qb/	.
8eJ 8c 8G\	8eeJ 8cc\)	.
=26	=26	=26
8GG\L	(16gg\LL	.
.	16ff\	.
8fJ 8d 8G\	16dd\	.
.	16b\JJ)	.
!	!	!LO:DY:rj
8C\L	8aaL 8ff 8cc'^<\	f
8eJ 8c 8G\	8ggJ 8ee 8cc'^<\	.
=27	=27	=27
8C\L	16eeKL 16cc\|	.
.	16r	.
.	(8qdd#X 8qb/	.
8eJ 8c 8G\	8eeJ 8cc\)	.
*rep	*	*
8C\L	16eeKL 16cc\|	.
.	16r	.
.	(8qdd# 8qb/	.
8eJ 8c 8G\	8eeJ 8cc\)	.
*Xrep	*	*
=28	=28	=28
8GG\L	(16ff#X\LL	.
.	16gg\)	.
8fJ 8d 8G\	16aa'\	.
.	16bb'\JJ	.
8e 8c\	8ccc'\	.
8r	8r	.
!!LO:LB:g=original
=29:|!	=29:|!	=29:|!
*>D	*>D	*>D
*^	*	*
!	!	!	!LO:DY:rj
4C#X/	8C#\L	8aa'\L	p
.	8AJ 8E\	8ee'\J	.
.	.	(8qgg/	.
4D/	8D\L	8ff\L)	.
.	8AJ 8F\	8dd'\J	.
=30	=30	=30	=30
.	.	(16qqaa/LL	f
.	.	16qqbb-X/JJ	.
4C#X/	8C#\L	8aa\L)	.
.	8AJ 8E\	8ee'\J	.
.	.	(16qqff/LL	.
.	.	16qqgg/JJ	.
4D/	8D\L	8ff\L)	.
.	8AJ 8F\	8dd'\J	.
=31	=31	=31	=31
4BB/	8BB\L	8gg\L	p
.	8GJ 8D\	8dd\J	.
.	.	(8qff/	.
4C/	8C\L	8ee\L)	.
.	8GJ 8E\	8cc'\J	.
=32	=32	=32	=32
.	.	(16qqgg/LL	f
.	.	16qqaa/JJ	.
4BB/	8BB\L	8gg\L)	.
.	8GJ 8D\	8dd'\J	.
.	.	(16qqee/LL	.
.	.	16qqff/JJ	.
4C/	8C\L	8ee\L)	.
.	8GJ 8E\	8cc\J	.
=33	=33	=33	=33
4D/	8D\L	8eeeL 8ee'\	.
.	8cJ 8A 8F#X\	16dddL 16dd'\	.
.	.	16dddJJ 16dd'\	.
4D/	8D\L	8cccL 8cc\	.
.	8cJ 8A 8F#\	8aaJ 8a\	.
*v	*v	*	*
!!LO:LB:g=original
=34	=34	=34
8GG\L	8ggL 8g'\	.
8d 8B 8G\	(16g\L	.
.	16b\JJ)	.
8dJ 8B 8G\	8dd\	.
8d 8B 8G\	8gg 8b 8g'\	sf
=35	=35	=35
.	(16qqee/LL	.
.	16qqff#X/JJ	.
8D\L	8ee\L)	.
8cJ 8A 8F#X\	8cc'\J	.
.	(16qqcc/LL	.
.	16qqdd/JJ	.
*rep	*	*
8D\L	8cc\L)	.
8cJ 8A 8F#\	8a'\J	.
*Xrep	*	*
=36	=36	=36
8B 8G\	8g/	.
8FnL 8FFn/	8bL 8g'/	.
8E 8EE/	8cc 8a'/	.
8DJ 8DD/	8ddJ 8b 8g'/	.
=37	=37	=37
!LO:TX:t=P:problem:mixed beam	!	!LO:DY:rj
8CL 8CC/	16eeKL 16cc 16g'\	p
.	16r	.
.	(8qdd#X 8qb/	.
8eJ 8c 8G\	8eeJ 8cc\)	.
8C\L	16eeKL 16cc'\	.
.	16r	.
.	(8qdd# 8qb/	.
8eJ 8c 8G\	8eeJ 8cc\)	.
!!LO:LB:g=original
=38	=38	=38
8GG\L	(16gg\LL	.
.	16ff\	.
8fJ 8d 8G\	16dd\	.
.	16b\JJ)	.
!	!	!LO:DY:rj
8C\L	8aaL 8ff 8cc'^<\	f
8eJ 8c 8G\	8ggJ 8ee 8cc'^<\	.
=39	=39	=39
!	!	!LO:DY:rj
8C\L	16eeKL 16cc'\	p
.	16r	.
.	(8qdd#X 8qb/	.
8eJ 8c 8G\	8eeJ 8cc\)	.
*rep	*	*
8C\L	16eeKL 16cc'\	.
.	16r	.
.	(8qdd# 8qb/	.
8eJ 8c 8G\	8eeJ 8cc\)	.
*Xrep	*	*
=40	=40	=40
!LO:TX:t=P:problem:mixed beam	!	!LO:DY:rj
8GG/L	(16ff#X\LL	f
.	16gg\)	.
8fJ 8d 8G\	16aa'\	.
.	16bb'\JJ	.
8e 8c\	8ccc'\	.
8r	8r	.
=41	=41	=41
8C\L	16eeKL 16cc'\	p
.	16r	.
.	(8qdd#X 8qb/	.
8eJ 8c 8G\	8eeJ 8cc\)	.
*rep	*	*
8C\L	16eeKL 16cc'\	.
.	16r	.
.	(8qdd# 8qb/	.
8eJ 8c 8G\	8eeJ 8cc\)	.
*Xrep	*	*
!!LO:LB:g=original
=42	=42	=42
8GG\L	(16gg\LL	.
.	16ff\	.
8fJ 8d 8G\	16dd\	.
.	16b\JJ)	.
!	!	!LO:DY:rj
8C\L	8aaL 8ff 8cc'^<\	f
8eJ 8c 8G\	8ggJ 8ee 8cc'^<\	.
=43	=43	=43
*^	*	*
!	!	!	!LO:DY:rj
4C/	8C\L	16eeKL 16cc'\	p
.	.	16r	.
.	.	(8qdd#X 8qb/	.
.	8eJ 8c 8G\	8eeJ 8cc\)	.
*rep	*rep	*	*
4C/	8C\L	16eeKL 16cc'\	.
.	.	16r	.
.	.	(8qdd# 8qb/	.
.	8eJ 8c 8G\	8eeJ 8cc\)	.
*Xrep	*Xrep	*	*
*v	*v	*	*
=44	=44	=44
!	!	!LO:DY:rj
8GG\L	(16ff#X\LL	f
.	16gg\)	.
8fJ 8d 8G\	16aa'\	.
.	16bb'\JJ	.
8e 8c\	8ccc'\	.
!LO:TX:a:i:t=Polka\ndacapo al fine [fermata]	!LO:TX:a:t=P:problem:fermata na kresce taktowej	!
8r	8r;	.
=:|!	=:|!	=:|!
*-	*-	*-
!!!system-decoration: {(s1,s2)}
!!!RDF**kern: > = above
!!!RDF**kern: < = below
!!!RDF**kern: | = vertical stroke
!!!ENC: Marta Lawrence
!!!END: 2021-06-24
!!!ENC: Marcin Jachim
!!!END: 2021-06-19
